X:1
T:Title
%%score { ( 1 4 ) | ( 2 3 ) }
L:1/8
Q:1/4=100
M:3/4
K:F
V:1 treble nm="Grand Piano"
V:4 treble 
V:2 treble 
V:3 treble 
V:1
 A2 B2 A2 | A2 G2 [A,F]2 | G2 z2 z2 | [CFA]6 | F2- [Fd]2 [CFc]2 | [Fc]2 [EB]2 [CFA]2 | %6
w: S.~M.~Bixby * *||||||
 A2 z2 [=B,F]2 | [EG]4- [B,EG]2 | F2 E2 F2 | A2 G2 [A,_EF]2 | D2- [DB]2 [Fd]2 | c6 | c2 d2 c2 | %13
w: |||||||
 c2 B2 [CFA]2 | A2- [DA]2 [B,EG]2 | [A,F]6 |] %16
w: |||
V:2
 C2 D2 [F,CF]2 | C2 z2[K:bass] z2 | z2 A2 C,2 | F,6 | A,2 B,2 A,2 | A,2 G,2 F,2 | %6
 z2[K:treble] G2 G,2 | C,6 | [F,A,C]4 [F,A,C]2 | C2 z2 z2 | z2 F,2 [B,,B,]2 | [F,A,F]6 | %12
 [F,F]2- [F,B,F]2 [F,A,F]2 | [F,F]2- [F,DF]2 F,2 | z2 =B,2 C,2 | F,6 |] %16
V:3
 [F,F]4 z2 | [F,F]2- [F,B,F]2[K:bass] F,2 | C,4 z2 | x6 | x6 | x6 | D,4[K:treble] z2 | x6 | x6 | %9
 [F,_E]2- [F,B,E]2 F,2 | B,,4 z2 | x6 | A,2 z2 z2 | A,2 z2 z2 | C,4 z2 | x6 |] %16
V:4
 x6 | x6 | [CE]4 [CEB]2 | x6 | [Cc]2 z2 z2 | C4 z2 | [=B,F]4 z2 | C4 z2 | x6 | x6 | [B,F]2 z2 z2 | %11
 x6 | x6 | x6 | [CF]2 z2 z2 | x6 |] %16

